X:1
T:Title
%%score { ( 1 3 ) | ( 2 4 ) }
L:1/8
M:6/4
K:Eb
V:1 treble nm="Grand Piano"
V:3 treble 
V:2 bass 
V:4 bass 
V:1
 z6 z4[Q:1/4=100] E>F | G2 F2 E2 B2 A2 G2 | [Ge]2 [Ad]2 [Ac]2 [GB]4 E>F | G2 F2 E2 B2 G2 E2 | %4
 E2 F2 G2 [DF]4 E>F | G2 F2 E2 B2 A2 G2 | [Ge]2 [Ad]2 [Be]2 c4 d>c | B2 e2 e2 [Ad]2 [Ac]2 [Ad]2 | %8
[M:5/4] [Ge]2- [Ge]2- [Ge]6 |[M:1/4] [EG]>[FG] |[M:6/4] [EG]2 [EG]2 [EG]2 [EG]2 [=Ec]2 [EB]2 | %11
 [FA]6- [FA]4 [FA]>[FA] | [FA]2 [=EG]2 [FA]2 [Ac]2 [GB]2 [B,FA]2 | [B,EG]6- [B,EG]4 [B,EG]>[B,FA] | %14
 [GB]2 [_G=A]2 [=GB]2 [Ge]2 [_Ad]2 [Be]>[Be] | f2 e2 c2 [Ac]2 [GB]2 E>F | %16
 G2 G2 G2 [DB]2 [DA]2 [DF]2 |[M:5/4] E2- E2- E6 |] %18
V:2
 z6 z4 [E,G,]>[E,A,E] | [E,B,E]2 [E,A,E]2 [E,G,]2 [E,G,E]2 [E,F,E]2 [E,B,E]2 | %2
 [E,B,]2 [E,C]2 [E,D]2 [E,E]4 [E,G,]>[E,A,E] | %3
 [E,B,E]2 [E,A,E]2 [E,G,]2 [E,G,E]2 [E,B,E]2 [E,G,B,]2 | %4
 [C,G,C]2 [F,=A,E]2 [F,A,E]2 [B,,B,]4 [E,G,]>[E,_A,E] | %5
 [E,B,E]2 [E,A,E]2 [E,G,]2 [E,G,E]2 [E,F,E]2 [E,B,E]2 | %6
 [E,B,]2 [F,B,]2[K:treble] [G,E]2 [A,EA]4 [=A,E_G]>[A,EG] | %7
 [B,EG]2 [B,EG]2 [B,EG]2[K:bass] [B,,B,]2 [B,,B,]2 [B,,B,]2 |[M:5/4] [E,B,]2- [E,B,]2- [E,B,]6 | %9
[M:1/4] [E,B,]>[E,=B,] |[M:6/4] [C,C]2 [C,C]2 [C,C]2 [C,C]2 [C,G,]2 [C,C]2 | %11
 [F,C]6- [F,C]4 [B,,B,]>[B,,B,] | [B,,B,]2 [B,,B,]2 [B,,B,]2 [B,,B,]2 [B,,B,]2 C,D, | %13
 E,6- E,4 E,>E, | [E,E]2 [E,E]2 [E,E]2 [E,B,]2 [F,B,]2[K:treble] [G,E]>[G,E] | %15
 [A,CA]2 [A,CA]2 [A,EA]2[K:bass] [E,E]2 [E,E]2 [G,B,]>[A,CE] | %16
 [B,E]2 [B,E]2 [B,E]2 [B,,B,]2 [B,,B,]2 [B,,A,]2 |[M:5/4] [G,B,]2 z2 z2 z4 |] %18
V:3
 x12 | x12 | x12 | x12 | x12 | x12 | x12 | x12 |[M:5/4] x10 |[M:1/4] x2 |[M:6/4] x12 | x12 | x12 | %13
 x12 | x12 | x12 | x12 |[M:5/4] z2 =A,2 C2 B,4 |] %18
V:4
 x12 | x12 | x12 | x12 | x12 | x12 | x4[K:treble] x8 | x6[K:bass] x6 |[M:5/4] x10 |[M:1/4] x2 | %10
[M:6/4] x12 | x12 | x12 | x12 | x10[K:treble] x2 | x6[K:bass] x6 | x12 | %17
[M:5/4] E,2- [E,-_G,]2 [E,-A,]2 [E,=G,]4 |] %18

